storage/app/icons/phosphoricons/light/picture-in-picture-light.svg

<svg xmlns="http://www.w3.org/2000/svg" fill="currentColor" viewBox="0 0 256 256"><path d="M216 50H40a14 14 0 0 0-14 14v128a14 14 0 0 0 14 14h176a14 14 0 0 0 14-14V64a14 14 0 0 0-14-14M38 192V64a2 2 0 0 1 2-2h176a2 2 0 0 1 2 2v58h-82a6 6 0 0 0-6 6v66H40a2 2 0 0 1-2-2m178 2h-74v-60h76v58a2 2 0 0 1-2 2"/></svg>

<svg xmlns="http://www.w3.org/2000/svg" viewBox="0 0 256 256" fill="currentColor"><path d="M216,50H40A14,14,0,0,0,26,64V192a14,14,0,0,0,14,14H216a14,14,0,0,0,14-14V64A14,14,0,0,0,216,50ZM38,192V64a2,2,0,0,1,2-2H216a2,2,0,0,1,2,2v58H136a6,6,0,0,0-6,6v66H40A2,2,0,0,1,38,192Zm178,2H142V134h76v58A2,2,0,0,1,216,194Z"/></svg>
